_includes/icons/ios-heart-outline.svg

<svg fill="#666" height="50" viewBox="0 0 50 50" width="50" xmlns="http://www.w3.org/2000/svg"><path d="m16.375 9c-6.257812 0-11.375 5.054688-11.375 11.28125 0 12.769531 14.488281 19.457031 19.375 23.5l.625.53125.625-.53125c4.886719-4.042969 19.375-10.730469 19.375-23.5 0-6.226562-5.117187-11.28125-11.375-11.28125-3.476562 0-6.539062 1.613281-8.625 4.0625-2.085937-2.449219-5.148437-4.0625-8.625-4.0625zm0 2c3.265625 0 6.105469 1.652344 7.78125 4.15625l.84375 1.25.84375-1.25c1.675781-2.503906 4.515625-4.15625 7.78125-4.15625 5.183594 0 9.375 4.144531 9.375 9.28125 0 10.898438-12.261719 17.007813-18 21.5-5.738281-4.492187-18-10.601562-18-21.5 0-5.136719 4.1875-9.28125 9.375-9.28125z"/></svg>

<svg xmlns="http://www.w3.org/2000/svg" viewBox="0 0 50 50" width="50" height="50" fill="#666"><path d="M 16.375 9 C 10.117188 9 5 14.054688 5 20.28125 C 5 33.050781 19.488281 39.738281 24.375 43.78125 L 25 44.3125 L 25.625 43.78125 C 30.511719 39.738281 45 33.050781 45 20.28125 C 45 14.054688 39.882813 9 33.625 9 C 30.148438 9 27.085938 10.613281 25 13.0625 C 22.914063 10.613281 19.851563 9 16.375 9 Z M 16.375 11 C 19.640625 11 22.480469 12.652344 24.15625 15.15625 L 25 16.40625 L 25.84375 15.15625 C 27.519531 12.652344 30.359375 11 33.625 11 C 38.808594 11 43 15.144531 43 20.28125 C 43 31.179688 30.738281 37.289063 25 41.78125 C 19.261719 37.289063 7 31.179688 7 20.28125 C 7 15.144531 11.1875 11 16.375 11 Z"/></svg>
